epam-assets/icon-sources/18/edit undo2.svg

<svg width="18" height="18" viewBox="0 0 18 18" fill="none" xmlns="http://www.w3.org/2000/svg">
<g id="18/edit undo2">
<path id="icon" d="M5.25 14.25V12.75H10.575C11.3625 12.75 12.0468 12.5 12.6278 12C13.2092 11.5 13.5 10.875 13.5 10.125C13.5 9.375 13.2092 8.75 12.6278 8.25C12.0468 7.75 11.3625 7.5 10.575 7.5H5.85L7.8 9.45L6.75 10.5L3 6.75L6.75 3L7.8 4.05L5.85 6H10.575C11.7875 6 12.8283 6.39375 13.6973 7.18125C14.5658 7.96875 15 8.95 15 10.125C15 11.3 14.5658 12.2812 13.6973 13.0687C12.8283 13.8562 11.7875 14.25 10.575 14.25H5.25Z" fill="#6C6F80"/>
</g>
</svg>

<svg xmlns="http://www.w3.org/2000/svg" width="18" height="18" fill="none" viewBox="0 0 18 18">
  <path fill="#6C6F80" d="M5.25 14.25v-1.5h5.325c.788 0 1.472-.25 2.053-.75s.872-1.125.872-1.875-.29-1.375-.872-1.875a3.047 3.047 0 0 0-2.053-.75H5.85L7.8 9.45 6.75 10.5 3 6.75 6.75 3 7.8 4.05 5.85 6h4.725c1.213 0 2.253.394 3.122 1.181C14.566 7.97 15 8.95 15 10.125s-.434 2.156-1.303 2.944c-.869.787-1.91 1.181-3.122 1.181H5.25Z"/>
</svg>
